X: 41829
T: Village, The
R: mazurka
M: 3/4
K: Dmajor
|:A>G|F>A d>c e>d|f>d A2 F2|A>G E2 G2|B>A F2 (3A_AG|
F>A d>c e>d|f>d A2 F2|A>G F>G E3/2[C/c/]|[D4d4]:|
|:F2|A>G E2 c2|e>d A2 F2|A>G E2 [C2F2c2]|D>F A2 F2|
A>G E2- E>c|e>d A2- A>F|A>G F>G E3/2[C/c/]|([D2d2] D2):|
|:F>G|A2 G>F E>D|B2 A>G F>E|g2 f>e d>c|d>e f>g a2|
(3ABA G>F E>D|(3BcB A>G F>E|(3gag f>e d>c|d2 D2:|

